sharp/svg/border_horizontal.svg

<svg xmlns="http://www.w3.org/2000/svg" width="24" height="24"><g fill="currentColor"><path d="M3 21h2v-2H3v2zM5 7H3v2h2V7zM3 17h2v-2H3v2zm4 4h2v-2H7v2zM5 3H3v2h2V3zm4 0H7v2h2V3zm8 0h-2v2h2V3zm-4 4h-2v2h2V7zm0-4h-2v2h2V3zm6 14h2v-2h-2v2zm-8 4h2v-2h-2v2zm-8-8h18v-2H3v2zM19 3v2h2V3h-2zm0 6h2V7h-2v2zm-8 8h2v-2h-2v2zm4 4h2v-2h-2v2zm4 0h2v-2h-2v2z"/></g></svg>

<?xml version="1.0" encoding="utf-8"?>
<!-- Generator: Adobe Illustrator 19.1.0, SVG Export Plug-In . SVG Version: 6.00 Build 0)  -->
<svg version="1.1" xmlns="http://www.w3.org/2000/svg" xmlns:xlink="http://www.w3.org/1999/xlink" x="0px" y="0px" width="24px"
	 height="24px" viewBox="0 0 24 24" enable-background="new 0 0 24 24" xml:space="preserve">
<g id="Bounding_Boxes" display="none">
	<g id="ui_x5F_spec_x5F_header_copy_3" display="inline">
	</g>
	<path display="inline" fill="none" d="M0,0h24v24H0V0z"/>
</g>
<g id="Sharp" fill="currentColor">
	<g id="ui_x5F_spec_x5F_header_copy_4">
	</g>
	<path d="M3,21h2v-2H3V21z M5,7H3v2h2V7z M3,17h2v-2H3V17z M7,21h2v-2H7V21z M5,3H3v2h2V3z M9,3H7v2h2V3z M17,3h-2v2h2V3z M13,7h-2
		v2h2V7z M13,3h-2v2h2V3z M19,17h2v-2h-2V17z M11,21h2v-2h-2V21z M3,13h18v-2H3V13z M19,3v2h2V3H19z M19,9h2V7h-2V9z M11,17h2v-2h-2
		V17z M15,21h2v-2h-2V21z M19,21h2v-2h-2V21z"/>
</g>
</svg>
